X: 1
T:McKennas (1)
R:Jig
S:Kevin Burke, London and Jackie Daly, Cork (fiddle and box)
D:From RTE 'The Pure Drop'
M:6/8
Z:Bernie Stocks
K:D
|: EAA ABd | cAG E2D | EFG EFG | EAF GED | EAA ABd | cAG Ecd |
cBc ABG |1 FDD DEE :|2 FDD D2e |: fed dcd | fed d2e | fed efd |
cAA A2e | fga efg | fed fed | cBc ABG |1 FDD D2e :|2 FDD DEE ||
